chains/reactivekopli/logo.svg

<svg width="32" height="32" viewBox="0 0 32 32" fill="none" xmlns="http://www.w3.org/2000/svg">
    <path fill-rule="evenodd" clip-rule="evenodd" d="M32 16C32 24.8366 24.8366 32 16 32C7.16344 32 0 24.8366 0 16C0 7.16344 7.16344 0 16 0C24.8366 0 32 7.16344 32 16ZM28 16C28 22.6274 22.6274 28 16 28C9.37258 28 4 22.6274 4 16C4 9.37258 9.37258 4 16 4C22.6274 4 28 9.37258 28 16ZM17 7L7 17H15V25L25 15H17V7Z" fill="url(#paint0_linear_155_2122)"/>
    <defs>
        <linearGradient id="paint0_linear_155_2122" x1="0" y1="0" x2="32" y2="32" gradientUnits="userSpaceOnUse">
            <stop stop-color="#62D0FF"/>
            <stop offset="0.5" stop-color="#3C2EFF"/>
            <stop offset="1" stop-color="#CBB5FF"/>
        </linearGradient>
    </defs>
</svg>

<svg xmlns="http://www.w3.org/2000/svg" fill="none" viewBox="0 0 32 32"><path fill="url(#a)" fill-rule="evenodd" d="M32 16c0 8.837-7.163 16-16 16S0 24.837 0 16 7.163 0 16 0s16 7.163 16 16Zm-4 0c0 6.627-5.373 12-12 12S4 22.627 4 16 9.373 4 16 4s12 5.373 12 12ZM17 7 7 17h8v8l10-10h-8V7Z" clip-rule="evenodd"/><defs><linearGradient id="a" x1="0" x2="32" y1="0" y2="32" gradientUnits="userSpaceOnUse"><stop stop-color="#62D0FF"/><stop offset=".5" stop-color="#3C2EFF"/><stop offset="1" stop-color="#CBB5FF"/></linearGradient></defs></svg>
